resources/icons/20px/small-info-sign.svg

<svg width="20" height="20" viewBox="0 0 20 20" fill="none" xmlns="http://www.w3.org/2000/svg">
<path d="M17 10C17 10.9193 16.8189 11.8295 16.4672 12.6788C16.1154 13.5281 15.5998 14.2997 14.9497 14.9497C14.2997 15.5998 13.5281 16.1154 12.6788 16.4672C11.8295 16.8189 10.9193 17 10 17C9.08075 17 8.1705 16.8189 7.32122 16.4672C6.47194 16.1154 5.70026 15.5998 5.05025 14.9497C4.40024 14.2997 3.88463 13.5281 3.53284 12.6788C3.18106 11.8295 3 10.9193 3 10C3 8.14348 3.7375 6.36301 5.05025 5.05025C6.36301 3.7375 8.14348 3 10 3C11.8565 3 13.637 3.7375 14.9497 5.05025C16.2625 6.36301 17 8.14348 17 10ZM11 5H9V7H11V5ZM11 8H8V9H9V14H8V15H12V14H11V8Z" fill="black"/>
</svg>

<svg xmlns="http://www.w3.org/2000/svg" viewBox="0 0 20 20">
  <path d="M17 10a7.001 7.001 0 0 1-11.95 4.95A7 7 0 1 1 17 10m-6-5H9v2h2zm0 3H8v1h1v5H8v1h4v-1h-1z"/>
</svg>
